!!!OTL: ES WOLLT EIN MAEDCHEN FRUEH AUFSTEHN
!!!ARE: Europa, Mitteleuropa, Deutschland, Schleswig
!!!SCT: E0121B
!!!YEM: Copyright 1995, estate of Helmut Schaffrath.
**kern
*ICvox
*Ivox
*M2/4
*k[b-]
*F:
{8c
=1
8f
8f
8e
8d
=2
8d
8c
8c}
{8c
=3
8d
8d
8e
16g
16g
=4
4f
8r}
{8c
=5
8c
8f
8a
8cc
=6
8cc
8b-
8g
8r}
=7
{16c
16c
8e
16g
16g
8b-
=8
8b-
8a
8f}
{8a
=9
8a
8g
8d
8e
=10
4f
8r}
==
!!!AGN: erzaehlendes Volks - Lied, Schalk -, Schelmen - Lied, Liebe     Ballade ?
!!!ONB: ESAC (Essen Associative Code) Database: ERK1
!!!AMT: simple duple
!!!AIN: vox
!!!EED: Helmut Schaffrath
!!!EEV: 1.0
*-
!!!title: @{OTL} [@{SCT}]
